icons/1_Primary/Deutsche Bahn.svg

<svg width="1024" height="1024" viewBox="0 0 1024 1024" fill="none" xmlns="http://www.w3.org/2000/svg">
<g clip-path="url(#clip0_2_1989)">
<path d="M512 1024C794.77 1024 1024 794.77 1024 512C1024 229.23 794.77 0 512 0C229.23 0 0 229.23 0 512C0 794.77 229.23 1024 512 1024Z" fill="#FF837D"/>
<path d="M728 323H296C281.699 323.068 268.004 328.78 257.892 338.892C247.78 349.004 242.068 362.699 242 377V647C242.139 661.325 247.91 675.02 258.065 685.125C268.22 695.23 281.944 700.932 296.27 701H728C742.344 700.861 756.056 695.075 766.164 684.896C776.271 674.717 781.961 660.965 782 646.62V377C781.932 362.699 776.22 349.004 766.108 338.892C755.996 328.78 742.301 323.068 728 323ZM742.58 646.64V647.18C742.556 651.069 741.022 654.797 738.301 657.577C735.581 660.357 731.888 661.971 728 662.08H296.26C292.322 662.043 288.556 660.459 285.775 657.669C282.995 654.88 281.423 651.108 281.4 647.17V376.24C281.423 372.3 282.996 368.527 285.779 365.737C288.561 362.947 292.33 361.364 296.27 361.33H728C731.891 361.434 735.59 363.046 738.314 365.826C741.039 368.607 742.575 372.337 742.6 376.23V376.99L742.58 646.64ZM407.13 635.72H316.29V388.28H407.12C471.12 388.28 506.49 428.35 506.49 510.87C506.6 582.47 482.57 635.13 407.13 635.72ZM663.21 506.28C675.598 502.511 686.464 494.894 694.232 484.534C702 474.174 706.265 461.608 706.41 448.66C706.41 443.53 705.41 388.39 635.77 388.39H532.52V635.72H620C643.17 635.72 715.37 635.72 715.37 566.16C715.38 548.78 708.25 516.05 663.21 506.28ZM615.74 595.6H591.38V532H617.38C648.22 532 655.78 550 655.78 563.81C655.78 595.56 625.43 595.56 615.78 595.56L615.74 595.6ZM446.6 516C446.6 466.15 441.2 427.22 387.74 427.22H375.74V595.6H396.86C428.34 595.6 446.65 570.44 446.65 516H446.6ZM591.38 426.52H610.06C636.68 426.52 647.27 435.81 647.27 456.33C647.27 472.53 635.61 486.25 614.87 486.25H591.38V426.52Z" fill="white"/>
</g>
<defs>
<clipPath id="clip0_2_1989">
<rect width="1024" height="1024" fill="white"/>
</clipPath>
</defs>
</svg>

<svg xmlns="http://www.w3.org/2000/svg" width="1024" height="1024" fill="none">
   <g clip-path="url(#a)">
      <path fill="#FF837D" d="M512 1024c282.77 0 512-229.23 512-512S794.77 0 512 0 0 229.23 0 512s229.23 512 512 512Z"/>
      <path fill="#fff" d="M728 323H296a54.258 54.258 0 0 0-54 54v270a54.531 54.531 0 0 0 54.27 54H728a54.53 54.53 0 0 0 54-54.38V377a54.258 54.258 0 0 0-54-54Zm14.58 323.64v.54a14.996 14.996 0 0 1-14.58 14.9H296.26a15.003 15.003 0 0 1-14.86-14.91V376.24a14.996 14.996 0 0 1 14.87-14.91H728a15.002 15.002 0 0 1 14.6 14.9v.76l-.02 269.65Zm-335.45-10.92h-90.84V388.28h90.83c64 0 99.37 40.07 99.37 122.59.11 71.6-23.92 124.26-99.36 124.85Zm256.08-129.44a60.938 60.938 0 0 0 43.2-57.62c0-5.13-1-60.27-70.64-60.27H532.52v247.33H620c23.17 0 95.37 0 95.37-69.56.01-17.38-7.12-50.11-52.16-59.88Zm-47.47 89.32h-24.36V532h26c30.84 0 38.4 18 38.4 31.81 0 31.75-30.35 31.75-40 31.75l-.04.04ZM446.6 516c0-49.85-5.4-88.78-58.86-88.78h-12V595.6h21.12c31.48 0 49.79-25.16 49.79-79.6h-.05Zm144.78-89.48h18.68c26.62 0 37.21 9.29 37.21 29.81 0 16.2-11.66 29.92-32.4 29.92h-23.49v-59.73Z"/>
   </g>
   <defs>
      <clipPath id="a">
         <path fill="#fff" d="M0 0h1024v1024H0z"/>
      </clipPath>
   </defs>
</svg>
